assets/icons/A-1.svg

<svg viewBox="0 0 105.82 105.82" xmlns="http://www.w3.org/2000/svg"><circle cx="52.91" cy="52.91" fill="#00a299" r="52.91"/><g fill="#fff"><path d="m52.91 97.27a44.36 44.36 0 1 1 44.36-44.36 44.41 44.41 0 0 1 -44.36 44.36zm0-85.72a41.36 41.36 0 1 0 41.36 41.36 41.41 41.41 0 0 0 -41.36-41.36z"/><path d="m49.39 34.9h7.1l13.24 36h-7.21l-3-9h-13.21l-3 9h-7.21zm8.5 22.1-5-14.86-4.89 14.86z"/></g></svg>

<svg id="Layer_1" data-name="Layer 1" xmlns="http://www.w3.org/2000/svg" viewBox="0 0 105.82 105.82"><defs><style>.cls-1{fill:#00a299;}.cls-2{fill:#fff;}</style></defs><circle class="cls-1" cx="52.91" cy="52.91" r="52.91"/><path class="cls-2" d="M52.91,97.27A44.36,44.36,0,1,1,97.27,52.91,44.41,44.41,0,0,1,52.91,97.27Zm0-85.72A41.36,41.36,0,1,0,94.27,52.91,41.41,41.41,0,0,0,52.91,11.55Z"/><path class="cls-2" d="M49.39,34.9h7.1l13.24,36H62.52l-3-9H46.31l-3,9H36.1ZM57.89,57l-5-14.86L48,57Z"/></svg>
